X:1
T:The Kesh Jig  "CYMRU"
M:6/8
L:1/8
Q:80
C:Trad. Arr. Duncan
S:Jig
K:HP
|: {g}A{d}A{e}A{g}ABc | \
{g}B{d}B{e}B{g}B{d}ce | \
{g}fe{A}eae{A}e |
{g}fec{g}ecB | \
{g}A{d}A{e}A{g}ABc | \
{g}B{d}B{e}B{g}B{d}ce |
{g}fe{A}eaec | \
{g}B{d}A{e}A{GAG}A3 :: \
B |
{g}c{d}c{e}c{g}ece | \
{g}faf{g}ec{d}A | \
{g}c{d}c{e}c{g}ec{d}A |
{g}B{d}B{e}B{g}BAB | \
{g}c{d}c{e}c{g}ece | \
{g}faf{g}ec{d}A |
{g}ce{A}e{g}ece | \
{g}fa{g}a{g}a2 :|
